!!!!SEGMENT: pl-kk--kk-i-502--002_anonim-salvum-fac-populum.krn
!!!id: 18xx:1343
!!!COM: Anonim
!!!OTL: Salvum fac populum
!!!PDT:
!!!SMS-siglum: PL-Kk
!!!SMS-shelfmark: Kk.I.502
!!!NIFC-rismID: 1001137888
!!!URL-scan: http://repozytorium.nifc.pl/skany/pl-kk-nut--i-502
!!!ONB-nifc:
!!!SMS-variant:
!!!SMS-altvar:
**kern	**kern	**text
*part2	*part1	*part1
*staff2	*staff1	*staff1
*clefF4	*clefG2	*
*k[b-]	*k[b-]	*
*M2/1	*M2/1	*
=1	=1	=1
!LO:N:vis=4:xstem	!LO:TX:b:t=P:problem:tekst słowny w źródle pod dolną pięciolinią [nie wyświetla się ze względu na pauzy]	!
1F 1AA	1c	Sal-
!LO:N:vis=4:xstem	!	!
1F 1BB-	1d	.
=2-	=2-	=2-
*	*^	*
!LO:N:vis=4:xstem	!	!LO:N:vis=4:xstem	!
1GG	1e	1c 1B-	-vum
!LO:N:vis=4:xstem	!	!LO:N:vis=4:xstem	!
1FF	1f	1c 1A	fac
=3-	=3-	=3-	=3-
!	!	!LO:N:vis=4:xstem	!
1D 1GG	1f	1Bn 1G	po-
1ryy	1f	1ryy	-pu-
=4-	=4-	=4-	=4-
1ryy	1f	1ryy	-lum
!LO:N:vis=4:xstem	!	!	!
1D 1GG#X	1f	1Bn	tu-
=5-	=5-	=5-	=5-
!LO:N:vis=4:xstem	!	!	!
1C 1AA	1e	1c	-um
!LO:N:vis=4:xstem	!	!LO:N:vis=4:xstem	!
1F 1FF	1d	1A	.
=6-	=6-	=6-	=6-
0ryy	1e	0ryy	Do-
.	1f	.	.
=7-	=7-	=7-	=7-
!LO:N:vis=4:xstem	!	!LO:N:vis=4:xstem	!
1G 1GGny	1e	1c	.
!LO:N:vis=4:xstem	!	!LO:N:vis=4:xstem	!
1F 1GG	1d	1B-y	-mi-
=8-	=8-	=8-	=8-
!LO:N:vis=4:xstem	!	!	!
1E 1C	1c	1ryy	-ne
*	*v	*v	*
!!LO:LB:g=original
=9||	=9||	=9||
!LO:N:vis=4:xstem	!	!
1F 1AA	1c	Et
!LO:N:vis=4:xstem	!	!
1F 1BB-	1d	be-
=10-	=10-	=10-
*	*^	*
!LO:N:vis=4:xstem	!	!LO:N:vis=4:xstem	!
1C 1GG	1e	1B-	-ne-
!LO:N:vis=4:xstem	!	!LO:N:vis=4:xstem	!
1F 1FF	1f	1A	-dic
=11-	=11-	=11-	=11-
0ryy	1f	0ryy	he-
.	1f	.	-re-
=12-	=12-	=12-	=12-
0ryy	1f	0ryy	-di-
.	1f	.	-ta-
=13-	=13-	=13-	=13-
1ryy	1f	1ryy	-ti
!LO:N:vis=4:xstem	!	!LO:N:vis=4:xstem	!
1G 1C	1e	1c	.
=14-	=14-	=14-	=14-
1ryy	1f	1ryy	.
!LO:N:vis=8	!	!LO:N:vis=8	!
2G 2C\L	1g	2e\L	.
!LO:N:vis=8	!	!LO:N:vis=8	!
2C#X\J	.	2B-X\J	.
=15-	=15-	=15-	=15-
!LO:N:vis=4	!	!LO:N:vis=4:xstem	!
1D	1f	1d 1A	.
!LO:N:vis=4	!	!LO:N:vis=4:xstem	!
1GG#X	1f	1d 1Bn	tu-
=16-	=16-	=16-	=16-
!LO:N:vis=4:xstem	!	!LO:N:vis=4:xstem	!
1AA	1e	1c#X 1A	-e
!!LO:LB:g=original
=17||	=17||	=17||	=17||
*^	*	*	*
!LO:N:vis=4:xstem	!	!	!LO:N:vis=4:xstem	!
1F	1FF	1a	1f 1c	Et
1ryy	1ryy	1a	1ryy	re-
*v	*v	*	*	*
=18-	=18-	=18-	=18-
0ryy	1g	0ryy	-ge
.	1f	.	e-
=19-	=19-	=19-	=19-
!LO:N:vis=4:xstem	!	!LO:N:vis=4:xstem	!
1C	1g	1e 1c	-os
!LO:N:vis=4:xstem	!	!LO:N:vis=4:xstem	!
1C#X	1g	1e 1B-	et
=20-	=20-	=20-	=20-
!LO:N:vis=4:xstem	!	!LO:N:vis=4:xstem	!
1D	1f	1 1A	ex-
1ryy	1f	1ryy	-tol-
=21-	=21-	=21-	=21-
1ryy	1f	1ryy	-le
!LO:N:vis=4:xstem	!	!LO:N:vis=4:xstem	!
1GG	1g	1d 1B-	.
=22-	=22-	=22-	=22-
!LO:N:vis=4:xstem	!	!LO:N:vis=4:xstem	!
1GG#X	1f	1d 1Bn	il-
!LO:N:vis=4:xstem	!	!LO:N:vis=4:xstem	!
1G 1AA	1e	1c#X	-los
=23-	=23-	=23-	=23-
!LO:N:vis=4:xstem	!	!	!
1F 1D	1d	1ryy	.
*	*v	*v	*
==	==	==
*-	*-	*-
!!!system-decoration: {s1,s2}
!!!ENC:Krzysztof Stępień
!!!END:2020-12-31
!!!ENC: Zofia Niedbalska
!!!END: 2021-01-03
